X:1
T:Tra le pompe
T:Tra le pompe di Morte
T:Claudio Saracini
T:Source : Le secondo Musische per cantar e sonar---Venetia---A.Vincenti---1620. Editor : André Vierendeels (29/11/15).
T:Notes : Original clefs : C1, F4 Editorial accidentals above the staff Figures above the BC are notated in original print Text by Giovan Battista Marino (Amorose, marittime....Vol 2)                                                                                                                                                                                                                                                                                                                                                                     Figures above the BC are notated in original print 
C:Claudio Saracini
%%score 1 2
L:1/8
Q:1/4=80
M:4/4
K:F
V:1 treble nm="Soprano" snm="S"
V:2 bass nm="BC" snm="BC"
V:1
 _EE G4 DD | ^C8 | ^C8 | A6 cc | B6 F2 | G4 G4 | z2 z c AABc | d4 z FED | G8 | F8 | cc c4 GF | %11
w: Tra le pom- pe di|Mor-|te,|(ch'il cre- de-|reb- be'a-|man- ti)|bel- lis- si- ma sen|vien Ma- ga d'A-|mo-|re.|Ac- que spar- ge di|
 F4 ^F4 | ^F8 | z d d4 c2 | B<A B<G A2 AG | AB c2 GFGA | B2 BA Bc A2- | A8 | G8 | c4 FFFC | _D8 | %21
w: pian- *|te,|fa- cel- le'ac-|cen- * * * de d'a- *|* * * mo- * * *|ro- so'ar- * * * do-||re,|e mor- mo- ra'in dis-|par-|
 _D8 | z2 BB B2 BB | B4 B2 FG | _A8 | _A8 | c4 GABc | d4 d4 | z ^FGA ^C/D/E/C/ D/E/F/G/ | %29
w: te|le sue ma- gi- che|no- te'in sa- cre|car-|te.|Hor si m'a- veg- gio'es-|pres- so,|ch'en sie- me'al- ber- * * * * * * *|
 A/E/F/G/ A/=B/^c/d/ e/A/B/c/ dE | E8 | D8 | z2 z c cccc | c3 c G3 A | B8 | B8 | z d B2 A G2 F | %37
w: * * * * * * * * * * * * * gan|spes-|so,|c'han- no'il re- gno com-|mun, com- mun la|sor-|te,|e can- giar so- glion|
 _E3 D D3 D | D8 | C8 |] %40
w: l'ar- mi'A- mo- r'e|Mor-|te.|
V:2
"^b" C,4 =B,,4 |"^#" A,,8 |"^#" A,,8 | A,,4 F,,4 | B,,4 D,4 | C,4 C,4 | F,,8 | B,,4 D,4 | C,8 | %9
 F,,8 |"^-natural" F,4 E,4 | B,,2 C,2 D,4 | D,8 | B,,4 C,4 | D,2 E,2 F,4 | F,,4 C,4 | G,,6 D,2 | %17
 D,,4 D,4 | G,,8 | F,,8 |"^b" B,,8- | B,,8- | B,,8- | B,,8 |"^b""^-natural" F,8 |"^b" F,,8 | %26
 C,6 G,,2- | G,,8 |"^#" D,4 A,,4- | A,,4 A,,4- |"^#" A,,8 | D,8 |"^b" F,,8 |"^b" C,8 |"^b" G,,8- | %35
 G,,8- | G,,8 | C,2 G,,6- | G,,8 | C,8 |] %40

